X:12
T:Is the Big Man Within
Z: id:dc-setdance-13
M:9/8
L:1/8
K:D Major
E|FDF G2E E2G|FDF A2D D2E|FDF G2E E2c|dcB A2D D2:|!
M:6/8
E|F2A ABc|ded cBA|BcB AGF|B2E E2G|!
F2A ABc|ded cBA|BcB BAF|A2D D2:|!

